X:67
T: Gábor Ignácé
K: Bb
M: 4/4
L: 1/4
bagg | gggf | 
Bcdd | ddgg | 
fedc | ccdB | 
Bcdd | ddgg | 
fedc | ccdB | 
B/c/ d/B/ c/A/ A/B/ | A<G G z
